X: 6
T: Song of the Braves' dance
C: Teton Sioux band 1911-1914
N: Derived from sioux006.krn
O: South Dakota, U.S.A.
N: Teton Sioux Music by Frances Densmore, 1918
Z: transcribed to **kern format by Craig Sapp
L: 1/8
M: 2/4
Q: 1/4=58
K: Eb clef=bass
%%linebreak <none>
G2G (3F/ G/ F/ [I:setbarnb 2]| 
G2G (3F/ G/ F/ | 
E E-E2- | 
E2C2 | 
E4 | 
(3E E- E (3E C =B, | 
C4- | 
C2(3E C =B, ||  
[M:3/4]C2>G,2G,2 ]|:  
[M:2/4]E4 | 
(3E E- E (3E C C ||  
[M:3/4]C4B, G, ||  
[M:2/4]C4 | 
(3C C- C C (3B,/ C/ B,/ | 
G, G,-G,2- | 
G,2F, E, | 
G,4 | 
(3G, G,- G, G, (3F,/ G,/ F,/ | 
E, E,E,2- | 
E,2C,2 | 
E,> E, E, C, | 
(3E, C, C,C,2 | 
C,4 | 
E,< C, (3C, C, C, | 
C,4 :|]  



